src/assets/icons/log-out.svg

<?xml version="1.0" encoding="UTF-8" standalone="no"?>
<!-- Uploaded to: SVG Repo, www.svgrepo.com, Generator: SVG Repo Mixer Tools -->

<svg
   width="800px"
   height="800px"
   viewBox="0 0 24 24"
   fill="none"
   version="1.1"
   id="svg2"
   sodipodi:docname="log-out - Copy.svg"
   inkscape:version="1.3.2 (091e20e, 2023-11-25, custom)"
   xmlns:inkscape="http://www.inkscape.org/namespaces/inkscape"
   xmlns:sodipodi="http://sodipodi.sourceforge.net/DTD/sodipodi-0.dtd"
   xmlns="http://www.w3.org/2000/svg"
   xmlns:svg="http://www.w3.org/2000/svg">
  <defs
     id="defs2" />
  <sodipodi:namedview
     id="namedview2"
     pagecolor="#ffffff"
     bordercolor="#000000"
     borderopacity="0.25"
     inkscape:showpageshadow="2"
     inkscape:pageopacity="0.0"
     inkscape:pagecheckerboard="0"
     inkscape:deskcolor="#d1d1d1"
     inkscape:zoom="0.97125"
     inkscape:cx="399.4852"
     inkscape:cy="400"
     inkscape:window-width="1920"
     inkscape:window-height="991"
     inkscape:window-x="-9"
     inkscape:window-y="-9"
     inkscape:window-maximized="1"
     inkscape:current-layer="svg2" />
  <path
     fill-rule="evenodd"
     clip-rule="evenodd"
     d="M19 23H11C10.4477 23 10 22.5523 10 22C10 21.4477 10.4477 21 11 21H19C19.5523 21 20 20.5523 20 20V4C20 3.44772 19.5523 3 19 3L11 3C10.4477 3 10 2.55229 10 2C10 1.44772 10.4477 1 11 1L19 1C20.6569 1 22 2.34315 22 4V20C22 21.6569 20.6569 23 19 23Z"
     fill="#0F0F0F"
     id="path1" />
  <path
     d="m 13.282154,5.6741722 c -0.3905,-0.39053 -1.0236,-0.39053 -1.4142,0 l -4.88742,4.8922188 c -0.78039,0.7812 -0.78008,2.047 6.9e-4,2.8277 l 4.89033,4.8904 c 0.3906,0.3905 1.0237,0.3905 1.4143,0 0.3905,-0.3905 0.3905,-1.0237 0,-1.4142 l -4.1857,-4.1857 c -0.39052,-0.3905 -0.39052,-1.0236 0,-1.4142 l 4.182,-4.1820098 c 0.3906,-0.39052 0.3906,-1.02369 0,-1.414209 z"
     fill="#0f0f0f"
     id="path1-4" />
</svg>

<svg xmlns="http://www.w3.org/2000/svg" width="800" height="800" fill="none" viewBox="0 0 24 24">
   <path fill="#0F0F0F" fill-rule="evenodd"
      d="M19 23h-8a1 1 0 1 1 0-2h8a1 1 0 0 0 1-1V4a1 1 0 0 0-1-1h-8a1 1 0 1 1 0-2h8a3 3 0 0 1 3 3v16a3 3 0 0 1-3 3Z"
      clip-rule="evenodd" />
   <path fill="#0f0f0f"
      d="M13.282 5.674a1 1 0 0 0-1.414 0l-4.887 4.892a2 2 0 0 0 0 2.828l4.89 4.89a1 1 0 0 0 1.415-1.414L9.1 12.685a1 1 0 0 1 0-1.415l4.182-4.182a1 1 0 0 0 0-1.414z" />
</svg>
